svg/package-rollback.svg

<?xml version="1.0" encoding="UTF-8"?>
<svg xmlns="http://www.w3.org/2000/svg" xmlns:xlink="http://www.w3.org/1999/xlink" width="33.507999" height="32" viewBox="0 0 33.507999 32">
<path fill-rule="nonzero" fill="rgb(25.098039%, 25.098039%, 25.490196%)" fill-opacity="1" d="M 20.109375 27.394531 L 13.398438 27.394531 L 11.980469 30.328125 L 10.050781 30.328125 L 10.050781 32 L 23.457031 32 L 23.457031 30.328125 L 21.527344 30.328125 Z M 31.796875 4.351562 L 30.292969 4.351562 L 30.292969 6.027344 L 31.796875 6.027344 C 31.804688 6.027344 31.8125 6.03125 31.820312 6.039062 C 31.828125 6.042969 31.832031 6.054688 31.832031 6.0625 L 31.832031 24.445312 C 31.832031 24.464844 31.816406 24.480469 31.796875 24.480469 L 1.710938 24.480469 C 1.699219 24.480469 1.691406 24.476562 1.683594 24.46875 C 1.679688 24.460938 1.675781 24.453125 1.675781 24.445312 L 1.675781 6.0625 C 1.675781 6.054688 1.679688 6.042969 1.683594 6.039062 C 1.691406 6.03125 1.699219 6.027344 1.710938 6.027344 L 18.464844 6.027344 L 18.464844 4.351562 L 1.710938 4.351562 C 0.765625 4.351562 0 5.117188 0 6.0625 L 0 24.445312 C 0 25.390625 0.765625 26.15625 1.710938 26.15625 L 31.796875 26.15625 C 32.742188 26.15625 33.507812 25.390625 33.507812 24.445312 L 33.507812 6.0625 C 33.507812 5.117188 32.742188 4.351562 31.796875 4.351562 M 20.824219 6.027344 L 23.953125 9.15625 L 23.953125 6.824219 C 24.027344 6.816406 24.101562 6.8125 24.179688 6.816406 C 26.191406 6.816406 28.003906 8.019531 28.785156 9.875 C 28.933594 10.222656 28.984375 10.609375 29.289062 10.871094 C 29.421875 10.984375 29.617188 11.042969 29.777344 10.96875 C 30.066406 10.835938 30.058594 10.429688 30.085938 10.164062 C 30.101562 9.976562 30.109375 9.789062 30.109375 9.605469 C 30.109375 8.707031 29.914062 7.820312 29.535156 7.007812 L 29.53125 7.003906 C 28.519531 4.835938 26.34375 3.453125 23.953125 3.453125 L 23.953125 1.171875 L 19.960938 5.164062 Z M 10.308594 18.441406 L 16.335938 21.917969 L 16.335938 16.027344 L 10.308594 12.550781 Z M 23.199219 12.550781 L 17.171875 16.027344 L 17.171875 21.917969 L 23.199219 18.441406 Z M 22.777344 11.828125 L 16.753906 8.351562 L 10.730469 11.828125 L 16.753906 15.304688 Z M 22.777344 11.828125 "/>
</svg>

<svg role="img" viewBox="0 0 33.508 32" height="32" width="33.508" xmlns="http://www.w3.org/2000/svg"><path d="M20.11 27.395h-6.712l-1.418 2.933h-1.93V32h13.407v-1.672h-1.93ZM31.796 4.352h-1.504v1.675h1.504c.008 0 .015.004.023.012.008.004.012.016.012.024v18.382c0 .02-.016.035-.035.035H1.71a.035.035 0 0 1-.027-.011.057.057 0 0 1-.008-.024V6.063c0-.008.004-.02.008-.024a.035.035 0 0 1 .027-.012h16.754V4.352H1.71A1.71 1.71 0 0 0 0 6.062v18.383a1.71 1.71 0 0 0 1.71 1.711h30.087a1.71 1.71 0 0 0 1.71-1.71V6.062a1.71 1.71 0 0 0-1.71-1.711M20.824 6.027l3.13 3.13V6.823c.073-.008.148-.011.226-.008a5 5 0 0 1 4.605 3.059c.149.348.2.734.504.996.133.113.328.172.488.098.29-.133.282-.54.309-.805a6.58 6.58 0 0 0 .023-.559 6.14 6.14 0 0 0-.574-2.597l-.004-.004a6.154 6.154 0 0 0-5.578-3.55V1.171l-3.992 3.992ZM10.31 18.441l6.027 3.477v-5.89l-6.027-3.477Zm12.89-5.89-6.027 3.476v5.891l6.027-3.477Zm-.422-.723-6.023-3.476-6.024 3.476 6.024 3.477Zm0 0" fill="rgb(25.098039%, 25.098039%, 25.490196%)"/></svg>
